public/avatar/item0/4.svg

<svg xmlns:xlink="http://www.w3.org/1999/xlink" height="58.65" width="49.15" xmlns="http://www.w3.org/2000/svg"><use height="10.55" transform="translate(12.05 26.75)" width="23.1" xlink:href="#a"/><defs><g id="a" fill-rule="evenodd"><path d="M-7.7 15.4q0 1.6-1.6 1.6t-1.6-1.6q0-1.6 1.6-1.6t1.6 1.6" fill="#c24800" transform="translate(12.05 -8.65)"/><path d="M-8.45 16.45q0 1.55-1.6 1.55t-1.6-1.55q0-1.6 1.6-1.6t1.6 1.6" fill="#c24800" transform="translate(12.05 -8.65)"/><path d="m-11.6 16.5 1.15-.5q1.55 0 1.55 1.6t-1.55 1.6q-1.6 0-1.6-1.6l.45-1.1m21.5-1.1q0 1.6-1.6 1.6-1.55 0-1.55-1.6t1.55-1.6q1.6 0 1.6 1.6" fill="#c24800" transform="translate(12.05 -8.65)"/><path d="M10.65 16.45q0 1.55-1.6 1.55-1.55 0-1.55-1.55 0-1.6 1.55-1.6 1.6 0 1.6 1.6" fill="#c24800" transform="translate(12.05 -8.65)"/><path d="M7.9 17.6q0-1.6 1.55-1.6 1.6 0 1.6 1.6t-1.6 1.6q-1.55 0-1.55-1.6M-9.9 8.65q.3 0 1.45 1.15 1.6 1.25 2.95 1.3l2.95-.35 1.65.05q1.15.75.5 3.35-.3 1.15-1.65 2.2-1.5 1.15-3.05 1.15-2.1 0-4.05-1.95l-.2-.2-.95-.4q-.95-.3-1.2-1.6v-.1l.15-.7.05-.05q.3-.4 1-.5l-.85-2.35.3-.65.05-.05q.4-.4.9-.3m8.5 2.9-.95.1-3.2.35q-1.65-.05-3.5-1.5l-1.05-.95-.05.05-.1.05.85 2.05.4.95-.9.2-.6.15-.05.2q.05.3 1 .55 1.05.35 1.3.6l.2.25q1.45 1.45 2.95 1.45 1.25 0 2.5-1 1.1-.95 1.3-1.8.35-1.4-.1-1.7" fill="#c24800" transform="translate(12.05 -8.65)"/><path d="m-8.75 12.25-.55-1.15q1.5 1.15 2.5 1.4.25 1.9 2 3.2l-.35.05q-1.25 0-2.6-1.35l-.2-.2q-.45-.45-1.55-.75l-.15-.05q.65-.1.9-.45l.05-.35-.05-.35" fill="#d9f1f1" transform="translate(12.05 -8.65)"/><path d="M-8.7 15.4q0 .6-.6.6t-.6-.6q0-.6.6-.6t.6.6" fill="#e6b800" transform="translate(12.05 -8.65)"/><path d="M-9.45 16.45q0 .55-.6.55t-.6-.55q0-.6.6-.6t.6.6m-.45 1.15q0 .6-.55.6-.6 0-.6-.6t.6-.6q.55 0 .55.6" fill="#e6b800" transform="translate(12.05 -8.65)"/><path d="M-8.7 15.4q0 .6-.6.6t-.6-.6q0-.6.6-.6t.6.6" fill="#f6e201" transform="translate(12.05 -8.65)"/><path d="M-9.45 16.45q0 .55-.6.55t-.6-.55q0-.6.6-.6t.6.6m-.45 1.15q0 .6-.55.6-.6 0-.6-.6t.6-.6q.55 0 .55.6m-.15-8.4 1.3 1.1q1.6 1.3 3.2 1.4l3.05-.35 1.3-.05q.7.5.3 2.2-.25 1.05-1.5 2.05-1.35 1.1-2.75 1.1-1.75 0-3.25-1.6l-.2-.25q-.35-.25-1.15-.45-1.25-.4-1.35-.95l.15-.5q.15-.25.95-.35l.35-.1-.2-.4-.9-2.25.2-.35.5-.25m8.4 3.15v-.2l-.65.1-3.3.35-2.15-.45q-.95.9.15 2.4 1.2 1.2 2.45 1.2 1 0 2.15-.9 1.05-.8 1.2-1.55l.15-.95" fill="#f6e201" transform="translate(12.05 -8.65)"/><path d="m4.75 12-3.2-.35-.95-.1q-.45.3-.1 1.7.2.85 1.3 1.8 1.25 1 2.5 1 1.5 0 2.95-1.45l.2-.25q.35-.3 1.35-.6l1-.55-.05-.2-.6-.15-.95-.2.45-.95.8-2.05-.05-.05-.1-.05-1 .95Q6.35 11.95 4.75 12M.1 10.8l1.65-.05 2.95.35q1.35-.05 2.95-1.3 1.15-1.15 1.5-1.15.45-.1.85.3l.05.05.3.65L9.5 12q.7.1 1 .5l.05.05.2.7-.05.1q-.25 1.35-1.2 1.6l-.95.4-.2.2Q6.55 17.5 4.3 17.5q-1.55 0-3-1.15-1.35-1.05-1.65-2.2Q-1 11.5.1 10.8" fill="#c24800" transform="translate(12.05 -8.65)"/><path d="M8.5 11.1 8 12.25l-.1.35.1.35.85.45-.15.05q-1.1.3-1.5.75l-.25.2q-1.35 1.35-2.6 1.35L4 15.7q1.75-1.3 2-3.2l2.5-1.4" fill="#d9f1f1" transform="translate(12.05 -8.65)"/><path d="m1.7 11.35 3.1.35q1.6-.1 3.2-1.4l1.3-1.1q.25-.05.45.25l.2.35-.85 2.25-.2.4.3.1q.85.1 1 .35l.1.5q-.1.55-1.35.95l-1.1.45-.25.25q-1.5 1.6-3.25 1.6-1.35 0-2.75-1.1-1.25-1-1.5-2.05-.4-1.7.3-2.2l1.3.05m-.8.8-.05.2.15.95q.2.75 1.25 1.55 1.1.9 2.1.9 1.25 0 2.45-1.2 1.15-1.5.15-2.4l-2.15.45-3.3-.35-.6-.1" fill="#f6e201" transform="translate(12.05 -8.65)"/><path d="M7.75 15.4q0-.6.55-.6.6 0 .6.6t-.6.6q-.55 0-.55-.6" fill="#e6b800" transform="translate(12.05 -8.65)"/><path d="M8.5 16.45q0-.6.55-.6.6 0 .6.6 0 .55-.6.55-.55 0-.55-.55m.4 1.15q0-.6.55-.6.6 0 .6.6t-.6.6q-.55 0-.55-.6" fill="#e6b800" transform="translate(12.05 -8.65)"/><path d="M7.75 15.4q0-.6.55-.6.6 0 .6.6t-.6.6q-.55 0-.55-.6" fill="#f6e201" transform="translate(12.05 -8.65)"/><path d="M8.5 16.45q0-.6.55-.6.6 0 .6.6 0 .55-.6.55-.55 0-.55-.55m.4 1.15q0-.6.55-.6.6 0 .6.6t-.6.6q-.55 0-.55-.6" fill="#f6e201" transform="translate(12.05 -8.65)"/></g></defs></svg>

<?xml version="1.0" encoding="UTF-8" standalone="no"?>
<svg xmlns:xlink="http://www.w3.org/1999/xlink" height="58.65px" width="49.15px" xmlns="http://www.w3.org/2000/svg">
  <g transform="matrix(1.0, 0.0, 0.0, 1.0, 24.1, 18.1)">
    <use height="10.55" transform="matrix(1.0, 0.0, 0.0, 1.0, -12.05, 8.65)" width="23.1" xlink:href="#shape0"/>
  </g>
  <defs>
    <g id="shape0" transform="matrix(1.0, 0.0, 0.0, 1.0, 12.05, -8.65)">
      <path d="M-7.7 15.4 Q-7.7 17.0 -9.3 17.0 -10.9 17.0 -10.9 15.4 -10.9 13.8 -9.3 13.8 -7.7 13.8 -7.7 15.4" fill="#c24800" fill-rule="evenodd" stroke="none"/>
      <path d="M-8.45 16.45 Q-8.45 18.0 -10.05 18.0 -11.65 18.0 -11.65 16.45 -11.65 14.85 -10.05 14.85 -8.45 14.85 -8.45 16.45" fill="#c24800" fill-rule="evenodd" stroke="none"/>
      <path d="M-11.6 16.5 L-10.45 16.0 Q-8.9 16.0 -8.9 17.6 -8.9 19.2 -10.45 19.2 -12.05 19.2 -12.05 17.6 L-11.6 16.5" fill="#c24800" fill-rule="evenodd" stroke="none"/>
      <path d="M9.9 15.4 Q9.9 17.0 8.3 17.0 6.75 17.0 6.75 15.4 6.75 13.8 8.3 13.8 9.9 13.8 9.9 15.4" fill="#c24800" fill-rule="evenodd" stroke="none"/>
      <path d="M10.65 16.45 Q10.65 18.0 9.05 18.0 7.5 18.0 7.5 16.45 7.5 14.85 9.05 14.85 10.65 14.85 10.65 16.45" fill="#c24800" fill-rule="evenodd" stroke="none"/>
      <path d="M7.9 17.6 Q7.9 16.0 9.45 16.0 11.05 16.0 11.05 17.6 11.05 19.2 9.45 19.2 7.9 19.2 7.9 17.6" fill="#c24800" fill-rule="evenodd" stroke="none"/>
      <path d="M-9.9 8.65 Q-9.6 8.65 -8.45 9.8 -6.85 11.05 -5.5 11.1 L-2.55 10.75 -0.9 10.8 Q0.25 11.55 -0.4 14.15 -0.7 15.3 -2.05 16.35 -3.55 17.5 -5.1 17.5 -7.2 17.5 -9.15 15.55 L-9.35 15.35 -10.3 14.95 Q-11.25 14.65 -11.5 13.35 L-11.5 13.25 -11.35 12.55 -11.3 12.5 Q-11.0 12.1 -10.3 12.0 L-11.15 9.65 -10.85 9.0 -10.8 8.95 Q-10.4 8.55 -9.9 8.65 M-1.4 11.55 L-2.35 11.65 -5.55 12.0 Q-7.2 11.95 -9.05 10.5 L-10.1 9.55 -10.15 9.6 -10.25 9.65 -9.4 11.7 -9.0 12.65 -9.9 12.85 -10.5 13.0 -10.55 13.2 Q-10.5 13.5 -9.55 13.75 -8.5 14.1 -8.25 14.35 L-8.05 14.6 Q-6.6 16.05 -5.1 16.05 -3.85 16.05 -2.6 15.05 -1.5 14.1 -1.3 13.25 -0.95 11.85 -1.4 11.55" fill="#c24800" fill-rule="evenodd" stroke="none"/>
      <path d="M-8.75 12.25 L-9.3 11.1 Q-7.8 12.25 -6.8 12.5 -6.55 14.4 -4.8 15.7 L-5.15 15.75 Q-6.4 15.75 -7.75 14.4 L-7.95 14.2 Q-8.4 13.75 -9.5 13.45 L-9.65 13.4 Q-9.0 13.3 -8.75 12.95 L-8.7 12.6 -8.75 12.25" fill="#d9f1f1" fill-rule="evenodd" stroke="none"/>
      <path d="M-8.7 15.4 Q-8.7 16.0 -9.3 16.0 -9.9 16.0 -9.9 15.4 -9.9 14.8 -9.3 14.8 -8.7 14.8 -8.7 15.4" fill="#e6b800" fill-rule="evenodd" stroke="none"/>
      <path d="M-9.45 16.45 Q-9.45 17.0 -10.05 17.0 -10.65 17.0 -10.65 16.45 -10.65 15.85 -10.05 15.85 -9.45 15.85 -9.45 16.45" fill="#e6b800" fill-rule="evenodd" stroke="none"/>
      <path d="M-9.9 17.6 Q-9.9 18.2 -10.45 18.2 -11.05 18.2 -11.05 17.6 -11.05 17.0 -10.45 17.0 -9.9 17.0 -9.9 17.6" fill="#e6b800" fill-rule="evenodd" stroke="none"/>
      <path d="M-8.7 15.4 Q-8.7 16.0 -9.3 16.0 -9.9 16.0 -9.9 15.4 -9.9 14.8 -9.3 14.8 -8.7 14.8 -8.7 15.4" fill="#f6e201" fill-rule="evenodd" stroke="none"/>
      <path d="M-9.45 16.45 Q-9.45 17.0 -10.05 17.0 -10.65 17.0 -10.65 16.45 -10.65 15.85 -10.05 15.85 -9.45 15.85 -9.45 16.45" fill="#f6e201" fill-rule="evenodd" stroke="none"/>
      <path d="M-9.9 17.6 Q-9.9 18.2 -10.45 18.2 -11.05 18.2 -11.05 17.6 -11.05 17.0 -10.45 17.0 -9.9 17.0 -9.9 17.6" fill="#f6e201" fill-rule="evenodd" stroke="none"/>
      <path d="M-10.05 9.2 L-8.75 10.3 Q-7.15 11.6 -5.55 11.7 L-2.5 11.35 -1.2 11.3 Q-0.5 11.8 -0.9 13.5 -1.15 14.55 -2.4 15.55 -3.75 16.65 -5.15 16.65 -6.9 16.65 -8.4 15.05 L-8.6 14.8 Q-8.95 14.55 -9.75 14.35 -11.0 13.95 -11.1 13.4 L-10.95 12.9 Q-10.8 12.65 -10.0 12.55 L-9.65 12.45 -9.85 12.05 -10.75 9.8 -10.55 9.45 -10.05 9.2 M-1.65 12.35 L-1.65 12.15 -2.3 12.25 -5.6 12.6 -7.75 12.15 Q-8.7 13.05 -7.6 14.55 -6.4 15.75 -5.15 15.75 -4.15 15.75 -3.0 14.85 -1.95 14.05 -1.8 13.3 L-1.65 12.35" fill="#f6e201" fill-rule="evenodd" stroke="none"/>
      <path d="M4.75 12.0 L1.55 11.65 0.6 11.55 Q0.15 11.85 0.5 13.25 0.7 14.1 1.8 15.05 3.05 16.05 4.3 16.05 5.8 16.05 7.25 14.6 L7.45 14.35 Q7.8 14.05 8.8 13.75 L9.8 13.2 9.75 13.0 9.15 12.85 8.2 12.65 8.65 11.7 9.45 9.65 9.4 9.6 9.3 9.55 8.3 10.5 Q6.35 11.95 4.75 12.0 M0.1 10.8 L1.75 10.75 4.7 11.1 Q6.05 11.05 7.65 9.8 8.8 8.65 9.15 8.65 9.6 8.55 10.0 8.95 L10.05 9.0 10.35 9.65 9.5 12.0 Q10.2 12.1 10.5 12.5 L10.55 12.55 10.75 13.25 10.7 13.35 Q10.45 14.7 9.5 14.95 L8.55 15.35 8.35 15.55 Q6.55 17.5 4.3 17.5 2.75 17.5 1.3 16.35 -0.05 15.3 -0.35 14.15 -1.0 11.5 0.1 10.8" fill="#c24800" fill-rule="evenodd" stroke="none"/>
      <path d="M8.5 11.1 L8.0 12.25 7.9 12.6 8.0 12.95 8.85 13.4 8.7 13.45 Q7.6 13.75 7.2 14.2 L6.95 14.4 Q5.6 15.75 4.35 15.75 L4.0 15.7 Q5.75 14.4 6.0 12.5 L8.5 11.1" fill="#d9f1f1" fill-rule="evenodd" stroke="none"/>
      <path d="M1.7 11.35 L4.8 11.7 Q6.4 11.6 8.0 10.3 L9.3 9.2 Q9.55 9.15 9.75 9.45 L9.95 9.8 9.1 12.05 8.9 12.45 9.2 12.55 Q10.05 12.65 10.2 12.9 L10.3 13.4 Q10.2 13.95 8.95 14.35 L7.85 14.8 7.6 15.05 Q6.1 16.65 4.35 16.65 3.0 16.65 1.6 15.55 0.35 14.55 0.1 13.5 -0.3 11.8 0.4 11.3 L1.7 11.35 M0.9 12.15 L0.85 12.35 1.0 13.3 Q1.2 14.05 2.25 14.85 3.35 15.75 4.35 15.75 5.6 15.75 6.8 14.55 7.95 13.05 6.95 12.15 L4.8 12.6 1.5 12.25 0.9 12.15" fill="#f6e201" fill-rule="evenodd" stroke="none"/>
      <path d="M7.75 15.4 Q7.75 14.8 8.3 14.8 8.9 14.8 8.9 15.4 8.9 16.0 8.3 16.0 7.75 16.0 7.75 15.4" fill="#e6b800" fill-rule="evenodd" stroke="none"/>
      <path d="M8.5 16.45 Q8.5 15.85 9.05 15.85 9.65 15.85 9.65 16.45 9.65 17.0 9.05 17.0 8.5 17.0 8.5 16.45" fill="#e6b800" fill-rule="evenodd" stroke="none"/>
      <path d="M8.9 17.6 Q8.9 17.0 9.45 17.0 10.05 17.0 10.05 17.6 10.05 18.2 9.45 18.2 8.9 18.2 8.9 17.6" fill="#e6b800" fill-rule="evenodd" stroke="none"/>
      <path d="M7.75 15.4 Q7.75 14.8 8.3 14.8 8.9 14.8 8.9 15.4 8.9 16.0 8.3 16.0 7.75 16.0 7.75 15.4" fill="#f6e201" fill-rule="evenodd" stroke="none"/>
      <path d="M8.5 16.45 Q8.5 15.85 9.05 15.85 9.65 15.85 9.65 16.45 9.65 17.0 9.05 17.0 8.5 17.0 8.5 16.45" fill="#f6e201" fill-rule="evenodd" stroke="none"/>
      <path d="M8.9 17.6 Q8.9 17.0 9.45 17.0 10.05 17.0 10.05 17.6 10.05 18.2 9.45 18.2 8.9 18.2 8.9 17.6" fill="#f6e201" fill-rule="evenodd" stroke="none"/>
    </g>
  </defs>
</svg>
